**kern	**kern	**dynam
*part1	*part1	*part1
*staff2	*staff1	*
*I"Piano	*	*
*clefF4	*clefG2	*
*k[b-]	*k[b-]	*
=1	=1	=1
8AA	16eeLL	.
.	16dd	.
16G#XLL 16Bn 16f	16cc#X	.
16G#J 16B 16f	16dd	.
8G#J 8B 8f	16ee	.
.	16ffJJ	.
=	=	=
8AA	16eeLL	<
.	16cc#X	.
16ALL 16c#X 16e	16a	.
16AJ 16c# 16e	16cc#	.
8AJ 8c# 8e	16dd	.
.	16eeJJ)	.
=	=	=
8DD	16ffLL	[ f
.	16ee	.
16FLL 16A 16d	16dd	.
16FJ 16A 16d	16aa	.
8FJ 8A 8d	16gg	.
.	16ffJJ	.
=	=	=
8GG	16eeLL	.
.	16ff	.
16FLL 16B- 16d	16ee	.
16FJ 16B- 16d	16dd	.
8FJ 8B- 8d	16cc	.
.	16ddJJ	.
=	=	=
8C	16ccLL	.
.	16b-	.
16ELL 16B- 16c	16a	.
16EJ 16B- 16c	16b-	.
8EJ 8B- 8c	16a	.
.	16gJJ	.
=	=	=
8FF	16fLL	.
.	16g	.
16ELL 16A 16c	16f	.
16EJ 16A 16c	16e	.
8EJ 8A 8c	16d	.
.	16eJJ	.
=	=	=
8BB-	16dLL	.
.	16c	.
(8dL	16B-	.
.	16c	.
8f#XJ)	16B-	.
.	16AJJ	.
=	=	=
*-	*-	*-
!!!system-decoration: {(s1,s2)}
